X:1
T:Title
%%score { ( 1 3 ) | ( 2 4 ) }
L:1/8
M:3/4
K:C
V:1 treble nm="Grand Piano"
V:3 treble 
V:2 bass 
V:4 bass 
V:1
 z2 z2[Q:1/4=116] [EG]2 | [Ge]4 z2 | [Ec]4 z2 | [FB]4 [B,DA]2 | [G,B,D]4 [G,CE]2 | %5
 [B,FG]4 [B,FA]2 | [B,FG]4 [B,FA]2 | [EG]6- |[M:2/4] [EG]4 |[M:1/4] [EG]2 |[M:3/4] [Ge]4 z2 | %11
 [Ec]4 z2 | [FB]4 [B,DA]2 | [G,B,D]4 [G,CE]2 | [B,FG]4[K:bass] [CE]2 | [G,CE]4 [F,G,D]2 | %16
 [E,G,C]6- |[M:2/4] [E,G,C]4 |[M:12/8] z3[K:treble] [EG] [EG]2 [EG] [CEG]2 z [EG][CEG] | %19
 z3 [EG] [EG]2 [EG] [B,FG]2 z [FG][B,FG] | z3 [DF] [DF]2 [DF] [G,DF]2 z [DF][G,DF] | %21
 z3 [CG] [G,B,F]2 [G,CE] [G,B,G]2- [G,B,G]3 | z3 [EG] [EG]2 [EG] [CEG]2 z [EG][CEG] | %23
 z3 [EG] [EG]2 [EG] [B,FG]2 z [FG][B,FG] | F, A,2[K:treble] F F2 F F2 z FF | %25
[M:11/8][K:bass] .G,,2 z[K:treble] G [G,B,F]2 [G,B,F][G,CE]- [G,CE]3- | [G,CE]2 z z z z z z z z2 |] %27
V:2
 z2 z2 [C,C]2 | G,2 z2 [C,B,]2 | C2 z2 [C,G,C]2 | [D,G,]4 F,2 | F,4 E,2 | D,4 D,2 | G,4 G,,2 | %7
 [C,C]6- |[M:2/4] [C,C]4 |[M:1/4] [C,C]2 |[M:3/4] G,2 z2 [C,B,]2 | C2 z2 [C,G,C]2 | [D,G,]4 F,2 | %13
 F,4 E,2 | D,4 G,,2 | G,,4 G,,2 | C,6- |[M:2/4] C,4 |[M:12/8] G, C2 C C2 .C3 z CD, | %19
 E, C2 C C2 .C3 z B,E, | F, A,2 A, A,2 .A,3 z G,C, | z E,2- E, z z z6 | G, C2 C C2 .C3 z CD, | %23
 E, C2 C C2 .C3 z B,E, | z3 [A,D] [A,D]2 [A,D] [B,D]2 z [B,D][B,D] | %25
[M:11/8] z z2 C D,2 G,,C,- C,3- | C,2 z z z z z z z z2 |] %27
V:3
 x6 | z2 A,2 [Fd]2 | z2 G,2 E2 | x6 | x6 | x6 | x6 | x6 |[M:2/4] x4 |[M:1/4] x2 | %10
[M:3/4] z2 A,2 [Fd]2 | z2 G,2 E2 | x6 | x6 | x4[K:bass] x2 | x6 | x6 |[M:2/4] x4 | %18
[M:12/8] x3[K:treble] x9 | x12 | x12 | x12 | x12 | x12 | x3[K:treble] x9 | %25
[M:11/8][K:bass] z E,3[K:treble] z z z z z z2 | x11 |] %27
V:4
 x6 | C,4 z2 | C,4 z2 | x6 | x6 | x6 | x6 | x6 |[M:2/4] x4 |[M:1/4] x2 |[M:3/4] C,4 z2 | C,4 z2 | %12
 x6 | x6 | x6 | x6 | x6 |[M:2/4] x4 |[M:12/8] z6 z C,2- C,2 z | z6 z D,2- D,2 z | %20
 z6 z B,,2- B,,2 z | .D,3 G, D,2 C, G,,2- G,,3 | z6 z C,2- C,2 z | z6 z D,2- D,2 z | %24
 z6 z G,2- G,3 |[M:11/8] x11 | x11 |] %27

